packages/icons/svg/32/Home.svg

<svg width="32" height="32" viewBox="0 0 32 32" fill="none" xmlns="http://www.w3.org/2000/svg">
<path d="M19 19.5C19 17.8431 17.6569 16.5 16 16.5C14.3432 16.5 13 17.8431 13 19.5L13 25C13 25.5523 12.5523 26 12 26L6 26C5.44772 26 5 25.5523 5 25V25L5.00001 15.4142C5.00001 15.149 5.10536 14.8946 5.2929 14.7071L15.2868 4.71324C15.6773 4.32272 16.3104 4.32272 16.701 4.71324C16.7023 4.7146 20.0397 8.11021 26.7132 14.9001C26.897 15.0871 27 15.3388 27 15.601L27 25C27 25.5523 26.5523 26 26 26H26L20 26C19.4477 26 19 25.5523 19 25V19.5Z" fill="#858585"/>
</svg>

<svg width="32" height="32" fill="none" xmlns="http://www.w3.org/2000/svg" viewBox="0 0 32 32"><path d="M19 19.5a3 3 0 10-6 0V25a1 1 0 01-1 1H6a1 1 0 01-1-1v-9.586a1 1 0 01.293-.707l9.994-9.994a1 1 0 011.414 0L26.713 14.9a1 1 0 01.287.701V25a1 1 0 01-1 1h-6a1 1 0 01-1-1v-5.5z" fill="currentColor"></path></svg>
